public/operators/nobg/stake.svg

<svg width="97" height="35" viewBox="0 0 97 35" fill="none" xmlns="http://www.w3.org/2000/svg">
<path d="M6.28876 10.0604C6.26427 5.37952 10.4126 2.78353 18.0285 2.76408C23.509 2.74993 24.4886 5.33885 24.4886 6.27963C24.4886 8.08161 20.9573 9.99323 20.9573 9.99323C20.9573 9.99323 21.1533 11.1162 24.1849 11.1073C27.2166 11.0985 30.1699 9.6537 30.1528 6.03736C30.1381 1.88343 24.1115 -0.0158163 18.1534 9.91716e-05C13.17 0.0124779 -0.0464055 0.518235 0.000122536 9.99323C0.0442018 18.409 22.0397 19.1517 22.0569 24.5399C22.0863 30.3915 12.9961 31.9672 9.9204 31.9672C6.84465 31.9672 5.59329 30.3951 5.58839 29.5321C5.56635 24.7928 12.0974 23.4736 12.0974 23.4736C12.0974 23.1199 11.7154 21.5443 9.18574 21.5514C2.66936 21.5602 0.0735879 25.6063 0.0931787 29.5568C0.110321 32.9168 3.39912 35.0141 8.36538 34.9999C17.862 34.9752 28.5708 31.6294 28.5316 24.1986C28.4973 17.2489 6.3157 15.4345 6.28876 10.0604Z" fill="white"/>
<path d="M96.82 28.6797C96.7441 28.5471 96.5311 28.5789 96.2494 28.7469C95.1719 29.3888 92.7084 31.2067 86.9438 31.2226C76.4334 31.2509 74.609 18.7414 74.609 18.7414C74.609 18.7414 82.6192 14.423 83.8705 12.6811C85.1219 10.9393 81.1401 10.5591 81.1401 10.5591C81.1401 10.5591 75.5371 15.4823 71.5651 16.9253C71.9961 14.7837 74.9347 9.90301 75.1037 7.09659C75.2726 4.29017 70.4239 4.97453 69.6501 5.24333C69.6501 6.46881 65.367 17.5937 63.8071 23.7088C62.8888 24.7698 61.5762 25.9829 60.4008 25.9847C59.72 25.9847 59.4702 25.074 59.4629 23.7689C59.4629 21.9581 60.844 19.0562 60.8342 17.2931C60.8342 16.0729 60.0579 16.0004 59.3894 16.0022C59.2449 16.0022 58.4417 16.0181 58.2948 16.0181C56.5806 16.0181 57.1438 14.9571 55.601 14.9677C50.8797 14.98 44.8653 18.7025 44.6033 24.3206C43.0091 25.0828 40.7782 26.043 39.6395 26.0466C38.4444 26.0466 38.1481 25.249 38.1457 24.5594C38.1457 23.348 40.859 16.1507 40.859 16.1507C40.859 16.1507 44.3143 15.5106 45.8228 15.3001C46.964 15.1392 47.2921 15.0791 47.7353 14.6812C48.1786 14.2833 49.0455 13.461 49.7458 12.7218C50.4462 11.9826 49.7581 11.4114 48.4627 11.415C46.7632 11.415 42.2156 12.1931 42.2156 12.1931C42.2156 12.1931 44.4 5.39187 44.3976 5.25394C44.3951 5.116 44.1527 5.0435 43.7829 5.04527C42.9552 5.04527 41.4785 5.36711 40.5333 5.61115C39.086 5.98428 37.9081 7.26459 37.6706 7.86053C37.4331 8.45648 35.7972 13.1232 35.7972 13.1232C35.7972 13.1232 27.0377 15.3072 25.8402 15.6343C25.8045 15.6432 25.7735 15.6599 25.7515 15.6821C25.7296 15.7043 25.7178 15.7309 25.7178 15.7581C25.7178 15.8147 26.7194 18.5875 28.7739 18.5769C30.2432 18.5769 34.5606 17.3002 34.5606 17.3002C34.5606 17.3002 32.3419 23.6663 32.3566 25.7884C32.3566 27.1501 33.2455 28.7451 36.9286 28.7363C40.357 28.7363 43.3568 27.4578 45.0367 26.5683C45.955 28.2464 48.1247 28.7062 49.6063 28.7027C52.9269 28.7027 55.4835 26.7893 55.8116 26.5329C56.2426 27.2685 57.2589 28.6815 59.5804 28.6762C60.893 28.6762 62.2521 27.6151 63.2537 26.5859C63.2347 26.7998 63.2388 27.0144 63.2659 27.2279C63.6675 29.8663 69.0917 28.3154 69.388 27.9476C69.5717 26.0395 69.4566 22.1385 70.5121 19.7299C71.9128 27.9458 77.2268 33.472 86.7797 33.4473C92.1207 33.4331 94.8609 32.3243 95.9948 31.4101C96.45 31.0464 96.7656 30.6031 96.9104 30.1242C97.0552 29.6452 97.024 29.1473 96.82 28.6797ZM50.985 25.9705C46.3983 25.9829 52.3882 17.3974 56.3014 17.3868C56.3063 18.4938 56.2206 25.9582 50.985 25.9705Z" fill="white"/>
<path d="M88.2221 28.6019C92.3631 28.5913 95.5687 26.6231 96.1564 25.9829C96.9155 25.15 95.2748 23.8927 94.7532 23.9139C93.4455 24.8176 92.0791 25.9104 89.0107 25.9175C85.3986 25.9281 86.2165 23.058 86.2165 23.058C86.2165 23.058 93.1688 23.707 95.9629 20.0977C96.8568 18.943 96.8935 17.3461 96.5335 16.6582C96.1735 15.9703 94.1508 14.6971 90.933 14.8899C86.9806 15.1304 81.9996 18.1065 80.905 21.6804C80.0258 24.5558 81.6886 28.6196 88.2221 28.6019ZM92.6301 16.5592C93.2814 16.5433 93.2227 17.3178 93.0488 18.1278C92.8039 19.2259 90.7151 22.0182 86.7283 21.9086C87.0051 20.2834 89.9706 16.6229 92.6374 16.5592H92.6301Z" fill="white"/>
</svg>

<svg xmlns="http://www.w3.org/2000/svg" width="97" height="35" fill="none"><path fill="#fff" d="M6.29 10.06c-.03-4.68 4.12-7.28 11.74-7.3 5.48-.01 6.46 2.58 6.46 3.52 0 1.8-3.53 3.71-3.53 3.71s.2 1.13 3.22 1.12c3.04-.01 5.99-1.46 5.97-5.07-.01-4.16-6.04-6.06-12-6.04C13.17.01-.05.52 0 10c.04 8.4 22.04 9.15 22.06 14.54.03 5.85-9.06 7.43-12.14 7.43s-4.33-1.57-4.33-2.44c-.02-4.74 6.5-6.06 6.5-6.06 0-.35-.37-1.93-2.9-1.92-6.52.01-9.12 4.06-9.1 8 .02 3.37 3.3 5.46 8.28 5.45 9.5-.02 20.2-3.37 20.16-10.8-.03-6.95-22.21-8.77-22.24-14.14Z"/><path fill="#fff" d="M96.82 28.68c-.08-.13-.29-.1-.57.07-1.08.64-3.54 2.46-9.3 2.47-10.52.03-12.34-12.48-12.34-12.48s8-4.32 9.26-6.06c1.25-1.74-2.73-2.12-2.73-2.12s-5.6 4.92-9.57 6.37C72 14.78 74.93 9.9 75.1 7.1c.17-2.81-4.68-2.13-5.45-1.86 0 1.23-4.28 12.35-5.84 18.47-.92 1.06-2.23 2.27-3.4 2.27-.69 0-.94-.9-.95-2.21 0-1.81 1.38-4.71 1.37-6.48 0-1.22-.77-1.29-1.44-1.29l-1.1.02c-1.7 0-1.15-1.06-2.69-1.05-4.72.01-10.73 3.73-11 9.35-1.6.76-3.82 1.72-4.96 1.73-1.2 0-1.5-.8-1.5-1.5 0-1.2 2.72-8.4 2.72-8.4s3.45-.64 4.96-.85c1.14-.16 1.47-.22 1.92-.62.44-.4 1.3-1.22 2-1.96s.02-1.3-1.28-1.3c-1.7 0-6.24.77-6.24.77s2.18-6.8 2.18-6.94c0-.13-.25-.2-.62-.2-.82 0-2.3.32-3.25.56a4.84 4.84 0 0 0-2.86 2.25c-.24.6-1.87 5.26-1.87 5.26s-8.76 2.19-9.96 2.51a.19.19 0 0 0-.09.05.1.1 0 0 0-.03.08c0 .05 1 2.83 3.05 2.82 1.47 0 5.8-1.28 5.8-1.28s-2.23 6.37-2.21 8.49c0 1.36.89 2.96 4.57 2.95 3.43 0 6.43-1.28 8.1-2.17.92 1.68 3.1 2.14 4.58 2.13 3.32 0 5.87-1.91 6.2-2.17a4.1 4.1 0 0 0 3.77 2.15c1.31 0 2.67-1.06 3.67-2.1-.02.22-.01.43.02.65.4 2.64 5.82 1.09 6.12.72.18-1.91.07-5.81 1.12-8.22 1.4 8.22 6.72 13.74 16.27 13.72 5.34-.02 8.08-1.13 9.21-2.04.46-.36.78-.8.92-1.29.15-.47.11-.97-.09-1.44Zm-45.83-2.7c-4.6 0 1.4-8.58 5.31-8.6 0 1.11-.08 8.58-5.31 8.6Z"/><path fill="#fff" d="M88.22 28.6c4.14 0 7.35-1.98 7.94-2.62.76-.83-.89-2.09-1.4-2.07-1.31.9-2.68 2-5.75 2-3.61.02-2.8-2.85-2.8-2.85s6.96.65 9.75-2.96c.9-1.16.93-2.75.57-3.44-.36-.69-2.38-1.96-5.6-1.77-3.95.24-8.93 3.22-10.03 6.79-.87 2.88.79 6.94 7.32 6.92Zm4.41-12.04c.65-.02.6.76.42 1.57-.25 1.1-2.33 3.89-6.32 3.78.28-1.63 3.24-5.29 5.9-5.35Z"/></svg>
